outputs/icons/device/restart_alt_round.svg

<svg xmlns="http://www.w3.org/2000/svg" width="1200" height="1200" fill="none"><g fill="#000" clip-path="url(#a)"><path d="M600 160.502v89.499c221 0 400 179.001 400 399.999 0 182-121.5 335-287.5 383.5-31.5 9.5-62.5-16-62.5-48.5 0-21.5 13.5-41.5 34.5-47.5C808.5 901 900 786 900 650c0-165.498-134.5-299.999-300-299.999v89.5c0 22.501-27 33.5-43 18L417.5 318.002c-10-10-10-25.5 0-35.5l140-139.501c15.5-16 42.5-5 42.5 17.501M359.5 470.502C322 521 300 583 300 650c0 136 91.5 251 215.5 287.5 21 6 34.5 26 34.5 47.5 0 32.5-31 58-62.5 48.5C321.5 985 200 832 200 650c0-90 30-172.999 80-239.998 18-24 54-26 75-5 17.5 17.999 19.5 45.5 4.5 65.5"/></g><defs><clipPath id="a"><path fill="#fff" d="M0 0h1200v1200H0z"/></clipPath></defs></svg>

<svg width="1200" height="1200" viewBox="0 0 1200 1200" fill="none" xmlns="http://www.w3.org/2000/svg"><g clip-path="url(#clip0_250_902)"><path d="M600 160.502V250.001C821 250.001 1000 429.002 1000 650C1000 832 878.5 985 712.5 1033.5C681 1043 650 1017.5 650 985C650 963.5 663.5 943.5 684.5 937.5C808.5 901 900 786 900 650C900 484.502 765.5 350.001 600 350.001V439.501C600 462.002 573 473.001 557 457.501L417.5 318.002C407.5 308.002 407.5 292.502 417.5 282.502L557.5 143.001C573 127.001 600 138.001 600 160.502Z" fill="black"/><path d="M359.5 470.502C322 521 300 583 300 650C300 786 391.5 901 515.5 937.5C536.5 943.5 550 963.5 550 985C550 1017.5 519 1043 487.5 1033.5C321.5 985 200 832 200 650C200 560 230 477.001 280 410.002C298 386.002 334 384.002 355 405.002C372.5 423.001 374.5 450.502 359.5 470.502Z" fill="black"/></g><defs><clipPath id="clip0_250_902"><path width="24" fill="white" d="M0 0H1200V1200H0V0z"/></clipPath></defs></svg>
